X:63
T:Tommy's Tarbukas
C:A. Fraser
S:Bernie Waugh
R:Reel
M:4/4
L:1/8
K:G minor
|:\
"Gm"d2cd BGGB|"F"AFcF dFcF|"Gm"d2cd BGGB|"F"AFcA "C"BGBc|
"Gm"d2cd BGGB|"F"AFcF dFcF|"Eb"d2Bd AFFA|"D"Ggdc "Gm"BGG2:|
|:\
"Gm"DGBG "Cm"EGcB|"F"Acfe "Bb"dbfd|\
"Gm"DGBG "Cm"EGcB|"Dm"AfcA "Gm"BGG2|
"Gm"DGBG "Cm"EGcB|"F"Acfe "Bb"dbfd|\
fdBe "F"cAFE|"D"DG^FA "Gm"BGG2:|

